icons/svg/account-network.svg

﻿<?xml version="1.0" encoding="utf-8"?>
<!DOCTYPE svg PUBLIC "-//W3C//DTD SVG 1.1//EN" "http://www.w3.org/Graphics/SVG/1.1/DTD/svg11.dtd">
<svg xmlns="http://www.w3.org/2000/svg" xmlns:xlink="http://www.w3.org/1999/xlink" version="1.1" baseProfile="full" width="24" height="24" viewBox="0 0 24.00 24.00" enable-background="new 0 0 24.00 24.00" xml:space="preserve">
	<path fill="#000000" fill-opacity="1" stroke-width="0.2" stroke-linejoin="round" d="M 13,16L 13,18L 14,18C 14.5523,18 15,18.4477 15,19L 22,19L 22,21L 15,21C 15,21.5523 14.5523,22 14,22L 10,22C 9.44772,22 9.00001,21.5523 9.00001,21L 2,21L 2,19L 9.00001,19C 9.00001,18.4477 9.44772,18 10,18L 11,18L 11,16L 5,16L 5,14.5C 5,12.567 8.13401,11 12,11C 15.866,11 19,12.567 19,14.5L 19,16L 13,16 Z M 12,2C 13.933,2 15.5,3.567 15.5,5.5C 15.5,7.433 13.933,9 12,9C 10.067,9 8.5,7.433 8.5,5.5C 8.5,3.567 10.067,2 12,2 Z "/>
</svg>

<svg xmlns="http://www.w3.org/2000/svg" version="1.1" baseProfile="full" width="24" height="24" viewBox="0 0 24.00 24.00" xml:space="preserve"><path fill="#000" fill-opacity="1" stroke-width=".2" stroke-linejoin="round" d="M13 16v2h1c.552 0 1 .448 1 1h7v2h-7c0 .552-.448 1-1 1h-4c-.552 0-1-.448-1-1H2v-2h7c0-.552.448-1 1-1h1v-2H5v-1.5c0-1.933 3.134-3.5 7-3.5s7 1.567 7 3.5V16h-6zM12 2c1.933 0 3.5 1.567 3.5 3.5S13.933 9 12 9 8.5 7.433 8.5 5.5 10.067 2 12 2z"/></svg>
